svg/c.svg

<?xml version="1.0" encoding="UTF-8" standalone="no"?>
<svg
   xmlns:dc="http://purl.org/dc/elements/1.1/"
   xmlns:cc="http://creativecommons.org/ns#"
   xmlns:rdf="http://www.w3.org/1999/02/22-rdf-syntax-ns#"
   xmlns:svg="http://www.w3.org/2000/svg"
   xmlns="http://www.w3.org/2000/svg"
   xmlns:sodipodi="http://sodipodi.sourceforge.net/DTD/sodipodi-0.dtd"
   xmlns:inkscape="http://www.inkscape.org/namespaces/inkscape"
   viewBox="0 0 38.000089 42.000031"
   width="380.00089"
   height="420.00031"
   version="1.1"
   id="svg10"
   sodipodi:docname="icons8-c-programming.svg"
   inkscape:version="1.0.1 (3bc2e813f5, 2020-09-07)">
  <metadata
     id="metadata16">
    <rdf:RDF>
      <cc:Work
         rdf:about="">
        <dc:format>image/svg+xml</dc:format>
        <dc:type
           rdf:resource="http://purl.org/dc/dcmitype/StillImage" />
        <dc:title></dc:title>
      </cc:Work>
    </rdf:RDF>
  </metadata>
  <defs
     id="defs14" />
  <sodipodi:namedview
     pagecolor="#ffffff"
     bordercolor="#666666"
     borderopacity="1"
     objecttolerance="10"
     gridtolerance="10"
     guidetolerance="10"
     inkscape:pageopacity="0"
     inkscape:pageshadow="2"
     inkscape:window-width="1920"
     inkscape:window-height="1056"
     id="namedview12"
     showgrid="false"
     fit-margin-top="0"
     fit-margin-left="0"
     fit-margin-right="0"
     fit-margin-bottom="0"
     inkscape:zoom="1.4895833"
     inkscape:cx="190"
     inkscape:cy="210.00282"
     inkscape:window-x="0"
     inkscape:window-y="0"
     inkscape:window-maximized="1"
     inkscape:current-layer="svg10" />
  <path
     fill="#283593"
     fill-rule="evenodd"
     d="m 17.903,0.28628166 c 0.679,-0.381 1.515,-0.381 2.193,0 C 23.451,2.1692817 33.547,7.8372817 36.903,9.7202817 37.582,10.100282 38,10.804282 38,11.566282 c 0,3.766 0,15.101 0,18.867 0,0.762 -0.418,1.466 -1.097,1.847 -3.355,1.883 -13.451,7.551 -16.807,9.434 -0.679,0.381 -1.515,0.381 -2.193,0 -3.355,-1.883 -13.451,-7.551 -16.807,-9.434 -0.678,-0.381 -1.096,-1.084 -1.096,-1.846 0,-3.766 0,-15.101 0,-18.867 0,-0.762 0.418,-1.466 1.097,-1.8470003 3.354,-1.883 13.452,-7.551 16.806,-9.43400004 z"
     clip-rule="evenodd"
     id="path2"
     style="fill:#004482;fill-opacity:1" />
  <path
     fill="#5c6bc0"
     fill-rule="evenodd"
     d="m 0.304,31.404282 c -0.266,-0.356 -0.304,-0.694 -0.304,-1.149 0,-3.744 0,-15.014 0,-18.759 0,-0.758 0.417,-1.458 1.094,-1.8360003 3.343,-1.872 13.405,-7.507 16.748,-9.38000004 0.677,-0.379 1.594,-0.371 2.271,0.008 3.343,1.87200004 13.371,7.45900004 16.714,9.33100004 0.27,0.152 0.476,0.335 0.66,0.5760003 z"
     clip-rule="evenodd"
     id="path4"
     style="fill:#659ad2;fill-opacity:1" />
  <path
     fill="#ffffff"
     fill-rule="evenodd"
     d="m 19,7.0002817 c 7.727,0 14,6.2730003 14,14.0000003 0,7.727 -6.273,14 -14,14 -7.727,0 -14,-6.273 -14,-14 0,-7.727 6.273,-14.0000003 14,-14.0000003 z m 0,7.0000003 c 3.863,0 7,3.136 7,7 0,3.863 -3.137,7 -7,7 -3.863,0 -7,-3.137 -7,-7 0,-3.864 3.136,-7 7,-7 z"
     clip-rule="evenodd"
     id="path6" />
  <path
     fill="#3949ab"
     fill-rule="evenodd"
     d="m 37.485,10.205282 c 0.516,0.483 0.506,1.211 0.506,1.784 0,3.795 -0.032,14.589 0.009,18.384 0.004,0.396 -0.127,0.813 -0.323,1.127 l -19.084,-10.5 z"
     clip-rule="evenodd"
     id="path8"
     style="fill:#00599c;fill-opacity:1" />
</svg>

<svg xmlns="http://www.w3.org/2000/svg" width="380.001" height="420" viewBox="0 0 38 42"><path fill="#283593" fill-rule="evenodd" d="M17.903.286a2.247 2.247 0 0 1 2.193 0L36.903 9.72A2.12 2.12 0 0 1 38 11.566v18.867c0 .762-.418 1.466-1.097 1.847l-16.807 9.434a2.247 2.247 0 0 1-2.193 0L1.096 32.28A2.122 2.122 0 0 1 0 30.434V11.567c0-.762.418-1.466 1.097-1.847C4.451 7.837 14.549 2.17 17.903.286z" clip-rule="evenodd" style="fill:#004482;fill-opacity:1"/><path fill="#5c6bc0" fill-rule="evenodd" d="M.304 31.404C.038 31.048 0 30.71 0 30.255V11.496c0-.758.417-1.458 1.094-1.836L17.842.28c.677-.379 1.594-.37 2.271.008 3.343 1.872 13.371 7.46 16.714 9.331.27.152.476.335.66.576z" clip-rule="evenodd" style="fill:#659ad2;fill-opacity:1"/><path fill="#fff" fill-rule="evenodd" d="M19 7c7.727 0 14 6.273 14 14s-6.273 14-14 14S5 28.727 5 21 11.273 7 19 7zm0 7c3.863 0 7 3.136 7 7 0 3.863-3.137 7-7 7s-7-3.137-7-7c0-3.864 3.136-7 7-7z" clip-rule="evenodd"/><path fill="#3949ab" fill-rule="evenodd" d="M37.485 10.205c.516.483.506 1.211.506 1.784 0 3.795-.032 14.59.009 18.384.004.396-.127.813-.323 1.127L18.593 21z" clip-rule="evenodd" style="fill:#00599c;fill-opacity:1"/></svg>
